!!!!SEGMENT: pl-cz--ii-87--011_anonim--maestosso.krn
!!!cenid: 18xx:1214
!!!COM: Anonim
!!!COM-rismID:
!!!CDT:
!!!CNT:
!!!OTL: Maestosso
!!!PDT: 1888
!!!AGN: Sacred
!!!SMS-siglum: PL-CZ
!!!SMS-shelfmark: II-87
!!!SMS-shelfwork: 011 W
!!!SMS-variant:
!!!SMS-altvar:
!!!NIFC-rismSourceID:
!!!NIFC-islandoraID: pl-cz:33881
!!!URL-pdf-islandora: https://repozytorium.nifc.pl/islandora/object/pl-cz%3A33881/datastream/PDF/view
!!!URL-scan:
!!!ONB-nifc: Utwór znajduje zaczyna się na skanie 037
!!!AIN: 1 feme 1 male 2 organ
!!!key: a
!!!OMD: Maestosso
**kern	**dynam	**kern	**dynam	**kern	**dynam	**kern	**dynam
*part4	*part4	*part3	*part3	*part2	*part2	*part1	*part1
*staff4	*	*staff3	*	*staff2	*	*staff1	*
*clefF4	*	*clefG2	*	*clefF4	*	*clefG2	*
*IGacmp	*	*IGacmp	*	*IGcoro	*	*IGcoro	*
*ICklav	*	*ICklav	*	*ICvox	*	*ICvox	*
*Iorgan	*	*Iorgan	*	*Imale	*	*Ifeme	*
*I"	*	*I"	*	*I"	*	*I"	*
*k[]	*	*k[]	*	*k[]	*	*k[]	*
*a:	*	*a:	*	*a:	*	*a:	*
*M4/4	*	*M4/4	*	*M4/4	*	*M4/4	*
*met(c)	*	*met(c)	*	*met(c)	*	*met(c)	*
=1	=1	=1	=1	=1	=1	=1	=1
!	!	!	!	!LO:TX:t=P:problem=4,8,16 left, middle or right&colon; global	!	!	!
!LO:TX:t=P:problem=4,8,16 left or right&colon; global	!	!	!	!LO:TX:b:t=Solo	!	!LO:TX:a:B:t=Maestosso	!
!LO:TX:t=P:problem=brak oznaczenia metrycznego	!LO:DY:a	!LO:TX:t=P:problem=brak oznaczenia metrycznego	!	!LO:TX:t=P:problem=brak oznaczenia metrycznego	!	!LO:TX:t=P:problem=brak oznaczenia metrycznego	!
4A\	p	8r	.	4A\	p	1ryy	.
.	.	16c/LL	p	.	.	.	.
.	.	16e/JJ	.	.	.	.	.
4E\	.	8a/L	.	8.E\	.	.	.
.	.	8a/J	.	.	.	.	.
.	.	.	.	16E\	.	.	.
4A\	.	8r	.	4c\	.	.	.
.	.	16c/LL	.	.	.	.	.
.	.	16e/JJ	.	.	.	.	.
4E\	.	8a/L	.	4B\	.	.	.
.	.	8a/J	.	.	.	.	.
=2	=2	=2	=2	=2	=2	=2	=2
*	*	*	*	*^	*	*^	*
!	!	!	!	!	!	!	!LO:TX:t=P:problem=4,8,16 left, middle or right&colon; global	!	!
4G#X\	.	8r	.	4e/	4G#X\	.	4ee/	4g#X\	.
.	.	16d/LL	.	.	.	.	.	.	.
.	.	16e/JJ	.	.	.	.	.	.	.
!	!	!LO:TX:t=P:problem=4,8,16 left or right&colon; global	!	!	!	!	!	!LO:N:vis=8	!
4E\	.	8b\L	.	8.c/ 8.e	4E\	.	8.ee/	8.g#\	.
.	.	8b\J	.	.	.	.	.	.	.
.	.	.	.	16e/	.	.	16ee/	16g#\	.
4G#\	.	8r	.	4e/	2r	.	4ee/	4g#\	.
.	.	16d/LL	.	.	.	.	.	.	.
.	.	16e/JJ	.	.	.	.	.	.	.
4E\	.	8b\L	.	4e/	.	.	4ee/	4g#\	.
.	.	8b\J	.	.	.	.	.	.	.
=3	=3	=3	=3	=3	=3	=3	=3	=3	=3
4A\	.	8r	.	4e/	4A\	.	4cc/	4a\	.
.	.	16c/LL	.	.	.	.	.	.	.
.	.	16e/JJ	.	.	.	.	.	.	.
4E\	.	8a/L	.	4e/	8E\	.	4cc/	4a\	.
!	!	!	!	!	!LO:N:vis=16	!	!	!	!
.	.	8a/J	.	.	8A\	.	.	.	.
4A\	.	8r	.	2r	(>8c\L	.	2rg	2rcc	.
.	.	16c/LL	.	.	16d\L	.	.	.	.
.	.	16e/JJ	.	.	16c\JJ	.	.	.	.
4E\	.	8a/L	.	.	8B\L	.	.	.	.
.	.	8a/J	.	.	8A\J)	.	.	.	.
=4	=4	=4	=4	=4	=4	=4	=4	=4	=4
!!linebreak:original
4G#X\	.	8r	.	4e/	4G#X\	.	4ee/	4b\	.
.	.	16d/LL	.	.	.	.	.	.	.
.	.	16e/JJ	.	.	.	.	.	.	.
!	!	!	!	!LO:N:vis=8	!	!	!	!	!
4E\	.	8b\L	.	8.e/	4E\	.	8.ee/	8.b\	.
.	.	8b\J	.	.	.	.	.	.	.
.	.	.	.	16e/	.	.	16ee/	16b\	.
4G#\	.	8r	.	4e/	2r	.	4ee/	4b\	.
.	.	16d/LL	.	.	.	.	.	.	.
.	.	16e/JJ	.	.	.	.	.	.	.
4E\	.	8b\L	.	4e/	.	.	4dd/	4b\	.
.	.	8b\J	.	.	.	.	.	.	.
*	*	*	*	*v	*v	*	*	*	*
=5	=5	=5	=5	=5	=5	=5	=5	=5
*^	*	*	*	*	*	*	*	*
4r	1AA	.	8r	.	4A\	.	4cc/	4a\	.
.	.	.	16c/LL	.	.	.	.	.	.
.	.	.	16e/JJ	.	.	.	.	.	.
4A/	.	.	8a/L	.	8.A\	.	4cc/	4a\	.
.	.	.	8a/J	.	.	.	.	.	.
.	.	.	.	.	16A\	.	.	.	.
4A/	.	.	8r	.	4c\	.	2rcc	2r	.
.	.	.	16c/LL	.	.	.	.	.	.
.	.	.	16e/JJ	.	.	.	.	.	.
4A/	.	.	8a/L	.	4A\	.	.	.	.
.	.	.	8a/J	.	.	.	.	.	.
=6	=6	=6	=6	=6	=6	=6	=6	=6	=6
*Xtuplet	*	*	*	*	*	*	*	*	*
*	*	*	*	*	*^	*	*	*	*
!	!	!	!	!LO:DY:rj	!	!	!	!	!	!
4F/	12F\L	.	4a\ 4cc 4ff	ff	4c/	4F\	.	4ff/	4a\	.
.	12A\	.	.	.	.	.	.	.	.	.
.	12c\J	.	.	.	.	.	.	.	.	.
4F/	12F\L	.	8.a\L 8.cc 8.ff	.	8c/	8F\	.	8ff/	8a\	.
.	12A\	.	.	.	.	.	.	.	.	.
.	.	.	.	.	8c/	8F\	.	8ff/	8a\	.
.	12c\J	.	.	.	.	.	.	.	.	.
.	.	.	16a\Jk 16cc 16ff	.	.	.	.	.	.	.
4F/	12F\L	.	4a\ 4cc 4ff	.	4c/	4A\	.	4ff/	4a\	.
.	12A\	.	.	.	.	.	.	.	.	.
.	12c\J	.	.	.	.	.	.	.	.	.
4F/	12F\L	.	4a\ 4cc 4ff	.	4c/	4F\	.	4ff/	4a\	.
.	12A\	.	.	.	.	.	.	.	.	.
.	12c\J	.	.	.	.	.	.	.	.	.
=7	=7	=7	=7	=7	=7	=7	=7	=7	=7	=7
!!linebreak:original
4D/	12D\L	.	4a\ 4dd 4ff	.	4d/	4D\	.	4ff/	4a\	.
.	12F\	.	.	.	.	.	.	.	.	.
.	12A\J	.	.	.	.	.	.	.	.	.
4D/	12D\L	.	8.a\L 8.dd 8.ff	.	8d/	8D\	.	8ff/	8a\	.
.	12F\	.	.	.	.	.	.	.	.	.
.	.	.	.	.	8d/	8D\	.	8ff/	8a\	.
.	12A\J	.	.	.	.	.	.	.	.	.
.	.	.	16a\Jk 16dd 16ff	.	.	.	.	.	.	.
4D/	12D\L	.	4a\ 4dd 4ff	.	4d/	4D\	.	4ff/	4a\	.
.	12F\	.	.	.	.	.	.	.	.	.
.	12A\J	.	.	.	.	.	.	.	.	.
4D/	12D\L	.	4a\ 4dd 4ff	.	4d/	4D\	.	4ff/	4a\	.
.	12F\	.	.	.	.	.	.	.	.	.
.	12A\J	.	.	.	.	.	.	.	.	.
=8	=8	=8	=8	=8	=8	=8	=8	=8	=8	=8
*	*	*	*^	*	*	*	*	*	*	*
4BB/	12BB\L	.	4dd/ 4ff	2g\	.	4d/	4BB\	.	4ff/	4g\	.
.	12D\	.	.	.	.	.	.	.	.	.	.
.	12G\J	.	.	.	.	.	.	.	.	.	.
4C/	12C\L	.	4cc/ 4ee	.	.	(2c/	4C\	.	4ee/	4g\	.
.	12E\	.	.	.	.	.	.	.	.	.	.
.	12G\J	.	.	.	.	.	.	.	.	.	.
12F\L	2ryy	.	2dd/	4a\ 4cc	.	.	(4F\	.	2dd/	4a\	.
12A\	.	.	.	.	.	.	.	.	.	.	.
12d\J	.	.	.	.	.	.	.	.	.	.	.
12G\L	.	.	.	4g\ 4b	.	4B/)	4G\	.	.	8g\L	.
12d\	.	.	.	.	.	.	.	.	.	.	.
.	.	.	.	.	.	.	.	.	.	8f\J	.
12f\J	.	.	.	.	.	.	.	.	.	.	.
*v	*v	*	*	*	*	*	*	*	*	*	*
=9	=9	=9	=9	=9	=9	=9	=9	=9	=9	=9
4c\ 4e	.	4cc/	4cc\	.	4c/	4C\)	.	4cc/	4e\	.
!	!	!	!	!	!	!	!	!	!	!LO:DY:a
4r	.	8.cc/L	4ryy	.	4rB	4r	.	4cc/	4r	p
.	.	16cc/Jk	.	.	.	.	.	.	.	.
4r	.	2cc/	4ryy	.	4rB	2r	.	2cc/	4r	.
12E\L	.	.	4b-X\	.	4E/	.	.	.	4b-X\	.
12G\	.	.	.	.	.	.	.	.	.	.
!LO:TX:b:t=V.S.	!	!	!	!	!	!	!	!	!	!
12c\J	.	.	.	.	.	.	.	.	.	.
=10	=10	=10	=10	=10	=10	=10	=10	=10	=10	=10
!!pagebreak:original
*^	*	*	*	*	*	*	*	*	*	*
4F/	12F\L	.	1cc	4a\	.	4F/	2r	.	4cc/	4a\	.
.	12A\	.	.	.	.	.	.	.	.	.	.
.	12c\J	.	.	.	.	.	.	.	.	.	.
4G/	12G\L	.	.	4e\	.	4G/	.	.	4cc/	4e\	.
.	12B-X\	.	.	.	.	.	.	.	.	.	.
.	12c\J	.	.	.	.	.	.	.	.	.	.
4A/	12A\L	.	.	4f\	.	4A/	4r	.	[2cc/	4f\	.
.	12B-\	.	.	.	.	.	.	.	.	.	.
.	12c\J	.	.	.	.	.	.	.	.	.	.
4E/	12E\L	.	.	4b-X\	.	(4E/	(4C\	.	.	4g\	.
.	12G\	.	.	.	.	.	.	.	.	.	.
.	12c\J	.	.	.	.	.	.	.	.	.	.
=11	=11	=11	=11	=11	=11	=11	=11	=11	=11	=11	=11
4F/	12F\L	.	4cc/	4a\	.	4F/)	4F\)	.	4cc/]	4a\	.
.	12A\	.	.	.	.	.	.	.	.	.	.
.	12c\J	.	.	.	.	.	.	.	.	.	.
4r	4ryy	.	8.dd/L	4r	.	4F/	4F\	.	4dd/	4r	.
.	.	.	16dd/Jk	.	.	.	.	.	.	.	.
4r	4ryy	.	2dd/	4r	.	4r	4r	.	2dd/	4r	.
12F#X\L	4ryy	.	.	4cc\	.	4F#X/	4r	.	.	4cc\	.
12A\	.	.	.	.	.	.	.	.	.	.	.
12d\J	.	.	.	.	.	.	.	.	.	.	.
*v	*v	*	*	*	*	*	*	*	*	*	*
=12	=12	=12	=12	=12	=12	=12	=12	=12	=12	=12
12G\L	.	1dd	4b\	.	4G/	2r	.	4dd/	4b\	.
12B\	.	.	.	.	.	.	.	.	.	.
12d\J	.	.	.	.	.	.	.	.	.	.
12A\L	.	.	4f#X\	.	4A/	.	.	4dd/	4f#X\	.
12c\	.	.	.	.	.	.	.	.	.	.
12d\J	.	.	.	.	.	.	.	.	.	.
12B\L	.	.	(>4g\	.	4B/	4r	.	2dd/	(>4g\	.
12c\	.	.	.	.	.	.	.	.	.	.
12d\J	.	.	.	.	.	.	.	.	.	.
12F#X\L	.	.	4a\)	.	4F#X/	4D\	.	.	4a\)	.
12A\	.	.	.	.	.	.	.	.	.	.
12d\J	.	.	.	.	.	.	.	.	.	.
=13	=13	=13	=13	=13	=13	=13	=13	=13	=13	=13
!!linebreak:original
4G\	.	4dd/	4b\	.	4G/	4G\	.	4dd/	4b\	.
4r	.	8.ee/L	4r	.	4G/	4G\	.	4ee/	4r	.
.	.	16ee/Jk	.	.	.	.	.	.	.	.
4r	.	2ee/	4r	.	4r	4r	.	2ee/	4r	.
12G#X\L	.	.	4dd\	.	4B/	4G#X\	.	.	4dd\	.
12B\	.	.	.	.	.	.	.	.	.	.
12e\J	.	.	.	.	.	.	.	.	.	.
=14	=14	=14	=14	=14	=14	=14	=14	=14	=14	=14
*^	*	*	*	*	*	*	*	*	*	*
4A/	12A\L	.	1ee	4cc\	.	4A/	4A\	.	4ee/	4cc\	.
.	12c\	.	.	.	.	.	.	.	.	.	.
.	12e\J	.	.	.	.	.	.	.	.	.	.
4G#X/	12G#\L	.	.	4b\	.	4G#X/	4r	.	4ee/	4b\	.
.	12B\	.	.	.	.	.	.	.	.	.	.
.	12e\J	.	.	.	.	.	.	.	.	.	.
4A/	12A\L	.	.	4cc\	.	4A/	2r	.	4ee/	4cc\	.
.	12c\	.	.	.	.	.	.	.	.	.	.
.	12e\J	.	.	.	.	.	.	.	.	.	.
12Gn\L	4ryy	.	.	4b-X\	.	4Gn/	.	.	4ee/	4b-X\	.
12B-X\	.	.	.	.	.	.	.	.	.	.	.
12e\J	.	.	.	.	.	.	.	.	.	.	.
*	*	*	*v	*v	*	*	*	*	*	*	*
=15	=15	=15	=15	=15	=15	=15	=15	=15	=15	=15
4A/	1F	.	4ee/	.	1F	1r	.	4ee/	2.a\	.
(<8B/L	.	.	(8dd/L	.	.	.	.	8dd/L	.	.
8c/J)	.	.	8cc/J)	.	.	.	.	8cc/J	.	.
4d/	.	.	4b/	.	.	.	.	4dd/	.	.
4d#X/	.	.	4a/	.	.	.	.	4dd#X/	8b\L	.
.	.	.	.	.	.	.	.	.	8a\J	.
=16	=16	=16	=16	=16	=16	=16	=16	=16	=16	=16
!!linebreak:original
2e/	2E\	.	8r	.	2E/	4E\	.	2ee/	2g#X\	.
.	.	.	16g#X/LL	.	.	.	.	.	.	.
.	.	.	16b/JJ	.	.	.	.	.	.	.
.	.	.	8ee\L	.	.	8E\	.	.	.	.
.	.	.	8ee\J	.	.	8E\	.	.	.	.
4e/	4E\	.	8r	.	4E\	2ryy	.	2r	2rf	.
!	!	!	!LO:N:vis=8	!	!	!	!	!	!	!
.	.	.	16g#/LL	.	.	.	.	.	.	.
!	!	!	!LO:N:vis=8	!	!	!	!	!	!	!
.	.	.	16b/JJ	.	.	.	.	.	.	.
4d/	4D\	.	8ee\L	.	4D\	.	.	.	.	.
.	.	.	8ee\J	.	.	.	.	.	.	.
*v	*v	*	*	*	*	*	*	*	*	*
=17	=17	=17	=17	=17	=17	=17	=17	=17	=17
2C\ 2c	.	8r	.	4e/	2C\	.	4aa/	4a\	.
.	.	16a\LL	.	.	.	.	.	.	.
.	.	16ee\JJ	.	.	.	.	.	.	.
.	.	8aa\L	.	8e/	.	.	8aa/	8a\	.
.	.	8aa\J	.	8e/	.	.	8aa/	8a\	.
2C#X\ 2c#X	.	8r	.	4e/	2C#X\	.	4aa/	4a\	.
.	.	16a\LL	.	.	.	.	.	.	.
.	.	16ee\JJ	.	.	.	.	.	.	.
.	.	8aa\L	.	4e/	.	.	4gg/	4a\	.
.	.	8aa\J	.	.	.	.	.	.	.
=18	=18	=18	=18	=18	=18	=18	=18	=18	=18
2D\	.	8r	.	2d/	2D\	.	2ff/	2.a\	.
*	*	*tremolo	*	*	*	*	*	*	*
!	!	!LO:TX:t=P:problem=kreski nad tremolo	!	!	!	!	!	!	!
.	.	8a\LL| 8dd 8ff	.	.	.	.	.	.	.
.	.	8a\JJ| 8dd 8ff	.	.	.	.	.	.	.
*	*	*Xtremolo	*	*	*	*	*	*	*
.	.	8a\yy| 8ddyy 8ffyy	.	.	.	.	.	.	.
*	*	*	*	*v	*v	*	*	*	*
*	*	*	*	*	*	*	*	*
*	*	*	*	*^	*	*	*	*
4E\	.	8r	.	4c/	4E\	.	4ee/	.	.
.	.	8a\ 8cc 8ee	.	.	.	.	.	.	.
4F\	.	8r	.	4B/	4F\	.	4dd/	4a\	.
.	.	8f/ 8a 8dd	.	.	.	.	.	.	.
=19	=19	=19	=19	=19	=19	=19	=19	=19	=19
!!pagebreak:original
!	!	!	!	!	!LO:N:vis=2	!	!	!	!
2E\	.	8r	.	2.e/	2.E\	.	2cc/	2a\	.
*	*	*tremolo	*	*	*	*	*	*	*
!	!	!	!	!	!	!	!	!	!
.	.	8e/L|> 8a 8cc	.	.	.	.	.	.	.
.	.	8e/|> 8a 8cc	.	.	.	.	.	.	.
.	.	8e/J|> 8a 8cc	.	.	.	.	.	.	.
2E\	.	8r	.	.	.	.	2b/	2g\	.
!	!	!	!	!	!	!	!	!	!
.	.	8d/L|> 8g 8b	.	.	.	.	.	.	.
.	.	8d/|> 8g 8b	.	4d/	4E\	.	.	.	.
.	.	8d/J|> 8g 8b	.	.	.	.	.	.	.
*	*	*	*	*v	*v	*	*	*	*
*	*	*	*	*	*	*v	*v	*
*	*	*Xtremolo	*	*	*	*	*
=20	=20	=20	=20	=20	=20	=20	=20
*	*	*	*	*^	*	*^	*
!	!	!	!	!	!LO:N:vis=4.	!	!	!	!
4AA/	.	8r	.	4c/	4A\	.	4a/	4a\	.
.	.	8c/ 8e 8a	.	.	.	.	.	.	.
4A\	.	8r	.	4r	8A\	.	4r	4ryy	.
.	.	8c/ 8e 8a	.	.	8A\	.	.	.	.
4A\	.	8r	.	2r	4A\	.	2r	2ryy	.
.	.	8c/ 8e 8a	.	.	.	.	.	.	.
4G\	.	8r	.	.	4G\	.	.	.	.
.	.	8c/ 8e 8a	.	.	.	.	.	.	.
=21	=21	=21	=21	=21	=21	=21	=21	=21	=21
4F\	.	8r	.	4c/	2.F\	.	4cc/	4a\	.
.	.	8c/ 8f 8a	.	.	.	.	.	.	.
4F\	.	8r	.	8c/	.	.	8cc/	8a\	.
.	.	8c/ 8f 8a	.	8c/	.	.	8cc/	8a\	.
4F\	.	8r	.	4c/	.	.	4dd/	4a\	.
.	.	8d/ 8a	.	.	.	.	.	.	.
4F\	.	8r	.	4c/	4F\	.	4dd#X/	4a\	.
.	.	8d#X/ 8a	.	.	.	.	.	.	.
=22	=22	=22	=22	=22	=22	=22	=22	=22	=22
4E\	.	8r	.	4c/	1E	.	2.ee/	4a\	.
.	.	8c/ 8e 8a	.	.	.	.	.	.	.
4E\	.	8r	.	8B/L	.	.	.	8g#X\L	.
.	.	8B/ 8e 8g#X	.	8A/J	.	.	.	8f#X\J	.
4E\	.	8r	.	8B/L	.	.	.	4g#\	.
.	.	8B/ 8e 8g#	.	8e/J	.	.	.	.	.
4E\	.	8r	.	4e/	.	.	4dd/	4g#\	.
.	.	8d/ 8e 8g#	.	.	.	.	.	.	.
=23	=23	=23	=23	=23	=23	=23	=23	=23	=23
!!linebreak:original
4AA\ 4A	.	8r	.	2.e/	1E	.	4cc/	4a\	.
.	.	8c/L	.	.	.	.	.	.	.
4r	.	8e/	.	.	.	.	4cc/	2a\	.
.	.	8a/J	.	.	.	.	.	.	.
4AA\ 4A	.	8r	.	.	.	.	2b/	.	.
.	.	8d/L	.	.	.	.	.	.	.
4r	.	8e/	.	4d/	.	.	.	4g#X\	.
.	.	8g#X/J	.	.	.	.	.	.	.
=24	=24	=24	=24	=24	=24	=24	=24	=24	=24
4AA\ 4A	.	8r	.	4c/	4AA\	.	4a/	4a\	.
.	.	8c/L	.	.	.	.	.	.	.
4r	.	8e/	.	4r	4r	.	4r	4ryy	.
.	.	8a/J	.	.	.	.	.	.	.
4AA\ 4A	.	8r	.	2d/	2D\	.	2a/	2f\	.
.	.	8d/L	.	.	.	.	.	.	.
4r	.	8f/	.	.	.	.	.	.	.
.	.	8a/J	.	.	.	.	.	.	.
=25	=25	=25	=25	=25	=25	=25	=25	=25	=25
!	!	!	!	!	!	!	!LO:SIC:v:s=2a/	!	!
2AA\ 2A	.	2c\ 2e\ 2a\ 2aa\	.	2c/	2AA\	.	2g/	2e\	.
2rBB	.	2rg	.	2r	2r	.	2r	2ryy	.
=26	=26	=26	=26	=26	=26	=26	=26	=26	=26
*^	*	*^	*	*	*	*	*	*	*
!	!	!LO:DY:rj	!	!	!LO:DY:rj	!	!	!LO:DY:rj	!	!	!LO:DY:rj
2f/	2G\	f	2b/	2g\	f	2f/	2G\	f	2b/	2g\	f
!	!	!	!	!	!	!LO:TX:t=P:!LO:N:vis=4 [druga warstwa]:problem	!	!	!LO:TX:t=P:!LO:N:vis=4 [druga warstwa]:problem	!	!
!LO:N:vis=4	!LO:N:vis=4	!	!LO:N:vis=4	!	!	!LO:N:vis=4	!	!	!LO:N:vis=4	!	!
4.d/	4.G\	.	4.gg/	2b\	.	4.d/	4.G\	.	4.gg/	4.b\	.
8B/	8G\	.	8dd/	.	.	8B/	8G\	.	8g/	8dd\	.
=27	=27	=27	=27	=27	=27	=27	=27	=27	=27	=27	=27
2c/	2C\	.	2cc/	2cc\	.	2c/	2C\	.	2e 2cc/	2e\	.
!LO:TX:b:t=Skryptum Wl&colon; Koſminſki	!	!	!LO:TX:b:t=1888	!	!	!	!	!	!	!	!
2r	2rAA	.	2r	2ryy	.	2re	2r	.	2r	2ryy	.
*v	*v	*	*	*	*	*v	*v	*	*v	*v	*
*	*	*v	*v	*	*	*	*	*
!LO:TX:t=DS.	!	!LO:TX:t=DS	!	!LO:TX:t=DS	!	!LO:TX:t=DS	!
==	==	==	==	==	==	==	==
*-	*-	*-	*-	*-	*-	*-	*-
!!!system-decoration: s1,s2[(s3,s4)]
!!!RDF**kern: | = vertical stroke
!!!RDF**kern: > = above
!!!RDF**kern: < = below
!!!ENC: Andrzej Kubiczek
!!!END: 2020-11-08
!!!ENC: Krzysztof Stępień
!!!END: 2021-11-17
